X:1
T:Title
%%score { ( 1 3 ) | ( 2 4 ) }
L:1/8
M:4/4
K:Bb
V:1 treble nm="Grand Piano"
V:3 treble 
V:2 bass 
V:4 bass 
V:1
 z4 z2[Q:1/4=96] [B,D]>[CE] | [DF]2 [DF]>[DF] [EG] [DF]2 [DB] | BAGB F2 D>[CE] | %3
 [DF]2 [DF][DF] [EG][EB] [=EA]>[EB] | c6 d>c | z2 z d z4 | [=Ec][EB][EA][EG] z2 _E[DF] | %7
 [EG][EG][=EA][EB] dcBA |[M:3/4] B2- [EB-]>[EB-] [DB]2 |[M:1/4] [DB]>[Ec] | %10
[M:4/4] [Fd]2 d>d e d2 [^Fc] | [GB][GB] [^FA]>[GB] [Gc] [GB]2 [EG] | %12
 [DF][DF][_D=E][=DF] [_EG][EB][=EA][EB] | [Ec]6 z [EF] | [DF][Fd] d>c c B2 [^FA] | %15
 Gc B>[EG] [EG] [DF]2 [DF] | [EG][EG][=EA][EB] dcBA |[M:3/4] B2- [EB-]>[EB-] [DB]2 |] %18
V:2
 z4 z2 [B,,F,]>[B,,F,] | [B,,B,]2 [B,,B,]>[B,,B,] [B,,B,] [B,,B,]2 [B,,F,] | %2
 [E,G,E][E,A,E][E,B,E][G,B,E] [B,D]2 [B,,F,B,]>[B,,F,] | %3
 [B,,B,]2 [B,,B,][B,,B,] [E,B,][E,G,] [C,C]>[C,B,] | [F,A,E]6 [F,A,F]>[F,A,E] | z2 F2 z4 | %6
 [C,B,][C,G,][C,C][C,B,] [F,A,]3 [B,,B,] | [E,B,][E,B,][C,C][C,B,] [F,B,F][F,EF][F,DF][F,CE] | %8
[M:3/4] z2 G,>G, F,2 |[M:1/4] [B,,F,]>[B,,F,] | %10
[M:4/4] [B,,B,]2[K:treble] [B,F]>[B,F] [B,G] [B,F]2[K:bass] [D,A,] | %11
 [E,G,][E,B,] [E,C]>[E,B,] [E,E] [E,E]2 [E,B,] | %12
 [B,,B,][B,,B,][B,,B,][B,,B,] [E,B,][E,G,][C,C][C,B,] | [F,A,]6 z [F,A,] | %14
 [B,,B,][B,,B,] [F,A,F]>[F,A,E] [G,E] [G,B,D]2 [D,C] | %15
 [E,B,][E,G,E] [E,G,E]>[B,,B,] [B,,B,] [B,,B,]2 [B,,B,] | %16
 [E,B,][E,B,][C,C][C,B,] [F,B,F][F,EF][F,DF][F,CE] |[M:3/4] z2 G,>G, [B,,F,]2 |] %18
V:3
 x8 | x8 | x8 | x8 | x8 | [DB][FB] .c>_A [Ge] [EG]2 [EG] | z4 F4 | x8 |[M:3/4] [B,D]2 z2 z2 | %9
[M:1/4] x2 |[M:4/4] x8 | x8 | x8 | x8 | x8 | x8 | x8 |[M:3/4] [B,D]2 z2 z2 |] %18
V:4
 x8 | x8 | x8 | x8 | x8 | [B,,B,][D,B,][F,A,]B, [E,B,] [E,B,]2 [E,B,] | x8 | x8 |[M:3/4] B,,6 | %9
[M:1/4] x2 |[M:4/4] x2[K:treble] x5[K:bass] x | x8 | x8 | x8 | x8 | x8 | x8 |[M:3/4] B,,4 z2 |] %18

